assets/images/icons/left_arrow_ic.svg

<svg fill="none" height="26" viewBox="0 0 15 26" width="15" xmlns="http://www.w3.org/2000/svg"><path d="m11.5858 25.0808c.7809.7809 2.0473.781 2.8284-.0002.7811-.781.7811-2.0473 0-2.8284l-9.2524-9.2522 9.2524-9.2527c.7811-.78106.7811-2.04733 0-2.828397-.3905-.390533-.9024-.585733-1.4143-.585733-.5118 0-1.0237.195198-1.4141.585865l-10.66667 10.666965c-.3752.375-.585867.8837-.585867 1.4142 0 .5306.210667 1.0392.585867 1.4143z" fill="#c8f1d4"/></svg>

<svg width="15" height="26" viewBox="0 0 15 26" fill="none" xmlns="http://www.w3.org/2000/svg">
<path d="M11.5858 25.0808C12.3667 25.8617 13.6331 25.8618 14.4142 25.0806C15.1953 24.2996 15.1953 23.0333 14.4142 22.2522L5.1618 13L14.4142 3.7473C15.1953 2.96624 15.1953 1.69997 14.4142 0.918903C14.0237 0.52837 13.5118 0.33317 12.9999 0.33317C12.4881 0.33317 11.9762 0.528368 11.5858 0.919035L0.91913 11.586C0.54393 11.961 0.333263 12.4697 0.333263 13.0002C0.333263 13.5308 0.54393 14.0394 0.91913 14.4145L11.5858 25.0808Z" fill="#C8F1D4"/>
</svg>
